!!!OTL: Nachbildung eines alten Mai- und Tanzspielliedes aus der Schweiz
!!!ARE: Europa, Mitteleuropa, Deutschland
!!!SCT: A0300
!!!YEM: Copyright 1995, estate of Helmut Schaffrath.
**kern
*ICvox
*Ivox
*M4/2
*k[]
*C:
{2g
=1
2g
2g
2a
2b
=2
1cc
2g}
{2dd
=3
2b
2cc
1a
=4
1g
2r}
{2g
=5
2g
2g
2a
2b
=6
1cc
2g}
{2dd
=7
2b
2cc
1a
=8
1g
2r}
{2cc
=9
2dd
2ee
2dd
2cc
=10
1ee
1dd
=11
1cc
1r
=12
2r}
{2g
2a
2g
=13
2e
1g
4f
4e
=14
2d
2c
1d
=15
1c
2r}
{2c
=16
2.e
4f
2g
2a
=17
2b
2cc
1a
=18
1g
2r}
{2g
=19
2a
2b
2cc
2g
=20
1cc
1dd
=21
0cc}
==
!!!AGN: Romanze, Ballade, Lied
!! Baseler Tenor (1550) fol 44d
!!!ONB: ESAC (Essen Associative Code) Database: ALTDEU
!!!AMT: simple quadruple
!!!AIN: vox
!!!EED: Helmut Schaffrath
!!!EEV: 1.0
*-
